X: 1
T: Tarbolton, The
Z: b.maloney
S: https://thesession.org/tunes/560#setting560
R: reel
M: 4/4
L: 1/8
K: Edor
|Eeed e2 BA|GBAF GFEF|Dddc d2 AF|GBAG FDDF|
Eeed efge|fedf edBA|GABG FGA=c|BGAF GE EE:|
gfef (3gfe be|gebe gfef|d2 fd adfd|ABAG FDDF|
(3GGG BG (3FFF AF|Eeef gfed|B2 dB AGFA|BGAF GE EE:|

